static/assets/img/icons/theme/design/bezier-curve.svg

<svg height="24" viewBox="0 0 24 24" width="24" xmlns="http://www.w3.org/2000/svg"><g fill="none" fill-rule="evenodd"><path d="m0 0h24v24h-24z" opacity="0"/><g fill="#000"><path d="m4.95312427 14.3025791-1.90624854-.6051582c1.60413392-5.05302187 4.62630424-7.6974209 8.95312427-7.6974209 4.32682 0 7.3489903 2.64439903 8.9531243 7.6974209l-1.9062486.6051582c-1.358829-4.2803115-3.669992-6.3025791-7.0468757-6.3025791-3.37688367 0-5.68804669 2.0222676-7.04687573 6.3025791zm7.04687573-6.3025791c.5522847 0 1-.44771525 1-1s-.4477153-1-1-1-1 .44771525-1 1 .4477153 1 1 1z" fill-rule="nonzero" opacity=".3"/><path d="m5.73243561 6h3.4382701c.41183641-1.16519237 1.52307549-2 2.82929429-2s2.4174579.83480763 2.8292943 2h3.4382701c.3458094-.59780137.9921532-1 1.7324356-1 1.1045695 0 2 .8954305 2 2s-.8954305 2-2 2c-.7402824 0-1.3866262-.40219863-1.7324356-1h-3.4382701c-.4118364 1.16519237-1.5230755 2-2.8292943 2s-2.41745788-.83480763-2.82929429-2h-3.4382701c-.34580942.59780137-.99215325 1-1.73243561 1-1.1045695 0-2-.8954305-2-2s.8954305-2 2-2c.74028236 0 1.38662619.40219863 1.73243561 1zm6.26756439 2c.5522847 0 1-.44771525 1-1s-.4477153-1-1-1-1 .44771525-1 1 .4477153 1 1 1zm-8 11c-1.65685425 0-3-1.3431458-3-3s1.34314575-3 3-3 3 1.3431458 3 3-1.34314575 3-3 3zm0-2c.55228475 0 1-.4477153 1-1s-.44771525-1-1-1-1 .4477153-1 1 .44771525 1 1 1zm16 2c-1.6568542 0-3-1.3431458-3-3s1.3431458-3 3-3 3 1.3431458 3 3-1.3431458 3-3 3zm0-2c.5522847 0 1-.4477153 1-1s-.4477153-1-1-1-1 .4477153-1 1 .4477153 1 1 1z"/></g></g></svg>

<svg width="24px" height="24px" viewBox="0 0 24 24" version="1.1" xmlns="http://www.w3.org/2000/svg" xmlns:xlink="http://www.w3.org/1999/xlink">
    <title>Icon For Bezier-curve</title>
    <g stroke="none" stroke-width="1" fill="none" fill-rule="evenodd">
        <rect opacity="0" x="0" y="0" width="24" height="24"></rect>
        <path d="M4.95312427,14.3025791 L3.04687573,13.6974209 C4.65100965,8.64439903 7.67317997,6 12,6 C16.32682,6 19.3489903,8.64439903 20.9531243,13.6974209 L19.0468757,14.3025791 C17.6880467,10.0222676 15.3768837,8 12,8 C8.62311633,8 6.31195331,10.0222676 4.95312427,14.3025791 Z M12,8 C12.5522847,8 13,7.55228475 13,7 C13,6.44771525 12.5522847,6 12,6 C11.4477153,6 11,6.44771525 11,7 C11,7.55228475 11.4477153,8 12,8 Z" fill="#000000" fill-rule="nonzero" opacity="0.3"></path>
        <path d="M5.73243561,6 L9.17070571,6 C9.58254212,4.83480763 10.6937812,4 12,4 C13.3062188,4 14.4174579,4.83480763 14.8292943,6 L18.2675644,6 C18.6133738,5.40219863 19.2597176,5 20,5 C21.1045695,5 22,5.8954305 22,7 C22,8.1045695 21.1045695,9 20,9 C19.2597176,9 18.6133738,8.59780137 18.2675644,8 L14.8292943,8 C14.4174579,9.16519237 13.3062188,10 12,10 C10.6937812,10 9.58254212,9.16519237 9.17070571,8 L5.73243561,8 C5.38662619,8.59780137 4.74028236,9 4,9 C2.8954305,9 2,8.1045695 2,7 C2,5.8954305 2.8954305,5 4,5 C4.74028236,5 5.38662619,5.40219863 5.73243561,6 Z M12,8 C12.5522847,8 13,7.55228475 13,7 C13,6.44771525 12.5522847,6 12,6 C11.4477153,6 11,6.44771525 11,7 C11,7.55228475 11.4477153,8 12,8 Z M4,19 C2.34314575,19 1,17.6568542 1,16 C1,14.3431458 2.34314575,13 4,13 C5.65685425,13 7,14.3431458 7,16 C7,17.6568542 5.65685425,19 4,19 Z M4,17 C4.55228475,17 5,16.5522847 5,16 C5,15.4477153 4.55228475,15 4,15 C3.44771525,15 3,15.4477153 3,16 C3,16.5522847 3.44771525,17 4,17 Z M20,19 C18.3431458,19 17,17.6568542 17,16 C17,14.3431458 18.3431458,13 20,13 C21.6568542,13 23,14.3431458 23,16 C23,17.6568542 21.6568542,19 20,19 Z M20,17 C20.5522847,17 21,16.5522847 21,16 C21,15.4477153 20.5522847,15 20,15 C19.4477153,15 19,15.4477153 19,16 C19,16.5522847 19.4477153,17 20,17 Z" fill="#000000"></path>
    </g>
</svg>
